modules/coreui-icons-brand/icons/deezer.svg

<svg version="1.1" xmlns="http://www.w3.org/2000/svg" width="32" height="32" viewBox="0 0 32 32">
<title>deezer</title>
<path d="M19.625 24.927h5.833v-1.765h-5.839v1.765zM6.541 24.927h5.833v-1.765h-5.833v1.765h0.005zM0 24.927h5.833v-1.765h-5.833zM13.079 24.927h5.843v-1.765h-5.843zM26.167 24.927h5.833v-1.765h-5.833zM26.167 22.631h5.833v-1.761h-5.833v1.787zM13.083 22.631h5.849v-1.761h-5.853v1.771zM0 22.631h5.844v-1.761h-5.844v1.787zM6.547 22.631h5.839v-1.761h-5.839v1.787zM19.656 22.631h5.839v-1.761h-5.864v1.787l0.020-0.016zM19.656 20.333h5.839v-1.76h-5.864v1.776h0.020zM6.584 20.333h5.812v-1.76h-5.849v1.776h0.021zM0.041 20.333h5.813v-1.76h-5.855v1.776h0.021zM13.12 20.333h5.839v-1.76h-5.865v1.776h0.021zM26.219 20.333h5.781v-1.76h-5.833v1.776h0.036zM26.219 18.041h5.781v-1.776h-5.833v1.771h0.036zM13.14 18.041h5.819v-1.776h-5.871v1.771h0.048zM0.063 18.041h5.801v-1.776h-5.864v1.771h0.041zM19.697 18.041h5.844v-1.776h-5.905v1.771h0.057zM19.697 15.749h5.844v-1.776h-5.905v1.761h0.057zM0.063 15.749h5.801v-1.76h-5.864v1.76zM13.14 15.749h5.839v-1.76h-5.9v1.76zM26.219 15.749h5.781v-1.776h-5.833v1.772h0.036zM13.079 13.437h5.843v-1.765h-5.843zM26.167 13.437h5.833v-1.765h-5.833zM13.079 11.14h5.843v-1.771h-5.843zM26.167 11.14h5.833v-1.771h-5.833zM26.167 8.839h5.833v-1.765h-5.833z"></path>
</svg>

<svg xmlns="http://www.w3.org/2000/svg" width="32" height="32" viewBox="0 0 32 32"><path d="M19.625 24.927h5.833v-1.765h-5.839v1.765zm-13.084 0h5.833v-1.765H6.541v1.765h.005zm-6.541 0h5.833v-1.765H0zm13.079 0h5.843v-1.765h-5.843zm13.088 0H32v-1.765h-5.833zm0-2.296H32V20.87h-5.833v1.787zm-13.084 0h5.849V20.87h-5.853v1.771zM0 22.631h5.844V20.87H0v1.787zm6.547 0h5.839V20.87H6.547v1.787zm13.109 0h5.839V20.87h-5.864v1.787l.02-.016zm0-2.298h5.839v-1.76h-5.864v1.776h.02zm-13.072 0h5.812v-1.76H6.547v1.776h.021zm-6.543 0h5.813v-1.76H-.001v1.776H.02zm13.079 0h5.839v-1.76h-5.865v1.776h.021zm13.099 0H32v-1.76h-5.833v1.776h.036zm0-2.292H32v-1.776h-5.833v1.771h.036zm-13.079 0h5.819v-1.776h-5.871v1.771h.048zm-13.077 0h5.801v-1.776H0v1.771h.041zm19.634 0h5.844v-1.776h-5.905v1.771h.057zm0-2.292h5.844v-1.776h-5.905v1.761h.057zm-19.634 0h5.801v-1.76H0v1.76zm13.077 0h5.839v-1.76h-5.9v1.76zm13.079 0H32v-1.776h-5.833v1.772h.036zm-13.14-2.312h5.843v-1.765h-5.843zm13.088 0H32v-1.765h-5.833zM13.079 11.14h5.843V9.369h-5.843zm13.088 0H32V9.369h-5.833zm0-2.301H32V7.074h-5.833z"/></svg>
